Sweet-Rainbow/icons/kicad.svg

<?xml version="1.0" encoding="UTF-8" standalone="no"?>
<!-- Generator: Gravit.io -->

<svg
   xmlns:dc="http://purl.org/dc/elements/1.1/"
   xmlns:cc="http://creativecommons.org/ns#"
   xmlns:rdf="http://www.w3.org/1999/02/22-rdf-syntax-ns#"
   xmlns:svg="http://www.w3.org/2000/svg"
   xmlns="http://www.w3.org/2000/svg"
   xmlns:sodipodi="http://sodipodi.sourceforge.net/DTD/sodipodi-0.dtd"
   xmlns:inkscape="http://www.inkscape.org/namespaces/inkscape"
   style="isolation:isolate"
   viewBox="0 0 36 36"
   width="48"
   height="48"
   version="1.1"
   id="svg16"
   sodipodi:docname="kicad.svg"
   inkscape:version="0.92.4 (5da689c313, 2019-01-14)">
  <metadata
     id="metadata22">
    <rdf:RDF>
      <cc:Work
         rdf:about="">
        <dc:format>image/svg+xml</dc:format>
        <dc:type
           rdf:resource="http://purl.org/dc/dcmitype/StillImage" />
        <dc:title></dc:title>
      </cc:Work>
    </rdf:RDF>
  </metadata>
  <defs
     id="defs20" />
  <sodipodi:namedview
     pagecolor="#ffffff"
     bordercolor="#666666"
     borderopacity="1"
     objecttolerance="10"
     gridtolerance="10"
     guidetolerance="10"
     inkscape:pageopacity="0"
     inkscape:pageshadow="2"
     inkscape:window-width="640"
     inkscape:window-height="480"
     id="namedview18"
     showgrid="false"
     inkscape:zoom="29.365243"
     inkscape:cx="25.325443"
     inkscape:cy="32"
     inkscape:current-layer="svg16"
     units="px" />
  <linearGradient
     id="_lgradient_28"
     x1="0"
     y1="0.5"
     x2="1"
     y2="0.5"
     gradientTransform="matrix(8,0,0,8,31,9)"
     gradientUnits="userSpaceOnUse">
    <stop
       offset="0%"
       stop-opacity="1"
       style="stop-color:rgb(255,224,49)"
       id="stop2" />
    <stop
       offset="98.69565217391305%"
       stop-opacity="1"
       style="stop-color:rgb(252,82,82)"
       id="stop4" />
  </linearGradient>
  <linearGradient
     id="_lgradient_29"
     x1="0"
     y1="0.5"
     x2="1"
     y2="0.5"
     gradientTransform="matrix(44,0,0,44,2,2)"
     gradientUnits="userSpaceOnUse">
    <stop
       offset="0%"
       stop-opacity="1"
       style="stop-color:rgb(0,255,255)"
       id="stop9" />
    <stop
       offset="98.26086956521739%"
       stop-opacity="1"
       style="stop-color:rgb(165,83,168)"
       id="stop11" />
  </linearGradient>
  <g
     id="g831"
     transform="matrix(0.81818182,0,0,0.81818182,-1.6363637,-1.6363637)">
    <circle
       id="circle7"
       r="4"
       cy="13"
       cx="35"
       style="vector-effect:non-scaling-stroke;fill:url(#_lgradient_28)" />
    <path
       id="path14"
       d="M 35,2.07 C 34.834,2.023 34.658,2 34.476,2 V 2 H 7.238 C 4.347,2 2,4.347 2,7.238 v 19.905 0 c 0,1.156 0.939,2.095 2.095,2.095 v 0 c 1.157,0 2.095,-0.939 2.095,-2.095 v 0 0 0 -17.81 C 6.19,7.599 7.599,6.19 9.333,6.19 h 25.143 v 0 c 0.182,0 0.358,-0.023 0.524,-0.07 0.166,0.047 0.342,0.07 0.524,0.07 v 0 h 3.143 c 1.734,0 3.143,1.409 3.143,3.143 v 3.143 0 c 0,1.157 0.938,2.095 2.095,2.095 v 0 c 1.156,0 2.095,-0.938 2.095,-2.095 v 0 -5.238 C 46,4.347 43.653,2 40.762,2 H 35.524 V 2 C 35.342,2 35.166,2.023 35,2.07 Z M 12.476,41.81 v 0 c 1.157,0 2.095,0.938 2.095,2.095 v 0 c 0,1.156 -0.938,2.095 -2.095,2.095 v 0 H 7.238 C 4.347,46 2,43.653 2,40.762 v -5.238 0 c 0,-1.157 0.939,-2.095 2.095,-2.095 v 0 c 1.157,0 2.095,0.938 2.095,2.095 v 0 3.143 c 0,1.734 1.409,3.143 3.143,3.143 z M 41.81,21.905 v 0 c 0,-1.157 0.938,-2.095 2.095,-2.095 v 0 c 1.156,0 2.095,0.938 2.095,2.095 v 0 18.857 C 46,43.653 43.653,46 40.762,46 H 21.905 v 0 C 20.748,46 19.81,45.061 19.81,43.905 v 0 c 0,-1.157 0.938,-2.095 2.095,-2.095 v 0 h 16.762 c 1.734,0 3.143,-1.409 3.143,-3.143 z M 8,9 v 30 h 6 v -7 l 5,7 h 7 L 16,24 26,9 h -7 l -5,7 V 9 Z m 24,10 h 6 v 20 h -6 z"
       inkscape:connector-curvature="0"
       style="fill:url(#_lgradient_29);fill-rule:evenodd" />
  </g>
</svg>

<?xml version="1.0" encoding="UTF-8" standalone="no"?><!-- Generator: Gravit.io --><svg xmlns="http://www.w3.org/2000/svg" xmlns:xlink="http://www.w3.org/1999/xlink" style="isolation:isolate" viewBox="0 0 48 48" width="48pt" height="48pt"><linearGradient id="_lgradient_28" x1="0" y1="0.5" x2="1" y2="0.5" gradientTransform="matrix(8,0,0,8,31,9)" gradientUnits="userSpaceOnUse"><stop offset="0%" stop-opacity="1" style="stop-color:rgb(255,224,49)"/><stop offset="98.69565217391305%" stop-opacity="1" style="stop-color:rgb(252,82,82)"/></linearGradient><circle vector-effect="non-scaling-stroke" cx="35" cy="13" r="4" fill="url(#_lgradient_28)"/><linearGradient id="_lgradient_29" x1="0" y1="0.5" x2="1" y2="0.5" gradientTransform="matrix(44,0,0,44,2,2)" gradientUnits="userSpaceOnUse"><stop offset="0%" stop-opacity="1" style="stop-color:rgb(0,255,255)"/><stop offset="98.26086956521739%" stop-opacity="1" style="stop-color:rgb(165,83,168)"/></linearGradient><path d=" M 35 2.07 C 34.834 2.023 34.658 2 34.476 2 L 34.476 2 L 7.238 2 C 4.347 2 2 4.347 2 7.238 L 2 27.143 L 2 27.143 C 2 28.299 2.939 29.238 4.095 29.238 L 4.095 29.238 C 5.252 29.238 6.19 28.299 6.19 27.143 L 6.19 27.143 L 6.19 27.143 L 6.19 27.143 L 6.19 9.333 C 6.19 7.599 7.599 6.19 9.333 6.19 L 34.476 6.19 L 34.476 6.19 C 34.658 6.19 34.834 6.167 35 6.12 C 35.166 6.167 35.342 6.19 35.524 6.19 L 35.524 6.19 L 38.667 6.19 C 40.401 6.19 41.81 7.599 41.81 9.333 L 41.81 12.476 L 41.81 12.476 C 41.81 13.633 42.748 14.571 43.905 14.571 L 43.905 14.571 C 45.061 14.571 46 13.633 46 12.476 L 46 12.476 L 46 7.238 C 46 4.347 43.653 2 40.762 2 L 35.524 2 L 35.524 2 C 35.342 2 35.166 2.023 35 2.07 L 35 2.07 L 35 2.07 Z  M 12.476 41.81 L 12.476 41.81 C 13.633 41.81 14.571 42.748 14.571 43.905 L 14.571 43.905 C 14.571 45.061 13.633 46 12.476 46 L 12.476 46 L 7.238 46 C 4.347 46 2 43.653 2 40.762 L 2 35.524 L 2 35.524 C 2 34.367 2.939 33.429 4.095 33.429 L 4.095 33.429 C 5.252 33.429 6.19 34.367 6.19 35.524 L 6.19 35.524 L 6.19 38.667 C 6.19 40.401 7.599 41.81 9.333 41.81 L 12.476 41.81 L 12.476 41.81 L 12.476 41.81 L 12.476 41.81 L 12.476 41.81 Z  M 41.81 21.905 L 41.81 21.905 C 41.81 20.748 42.748 19.81 43.905 19.81 L 43.905 19.81 C 45.061 19.81 46 20.748 46 21.905 L 46 21.905 L 46 40.762 C 46 43.653 43.653 46 40.762 46 L 21.905 46 L 21.905 46 C 20.748 46 19.81 45.061 19.81 43.905 L 19.81 43.905 C 19.81 42.748 20.748 41.81 21.905 41.81 L 21.905 41.81 L 38.667 41.81 C 40.401 41.81 41.81 40.401 41.81 38.667 L 41.81 21.905 L 41.81 21.905 L 41.81 21.905 L 41.81 21.905 Z  M 8 9 L 8 39 L 14 39 L 14 32 L 19 39 L 26 39 L 16 24 L 26 9 L 19 9 L 14 16 L 14 9 L 8 9 L 8 9 Z  M 32 19 L 38 19 L 38 39 L 32 39 L 32 19 Z " fill-rule="evenodd" fill="url(#_lgradient_29)"/></svg>
